X:1
T:September song
T:September song
T:Kurt Weill
T:Copyright © 2004 Patric Reich All Rights Reserved
T:Copyright © 2004 Patric Reich All Rights Reserved
T:Copyright © 2004 Patric Reich All Rights Reserved
C:Kurt Weill
Z:Copyright © 2004 Patric Reich
Z:All Rights Reserved
%%score 1 2 3 4
L:1/8
Q:1/4=100
M:4/4
K:Bb
V:1 treble nm="S"
V:2 treble nm="A"
V:3 bass nm="T"
V:4 bass nm="B"
V:1
 z2 B,2 D2 A2 | G2 G2 G4 | z2 B,2 (3B,2 _D2 _G2 | F3 F- F4 | z2 DD F2 B2 | c8 | z2 C2 (3C2 B,2 C2 | %7
w: Lors- que sept-|em- bre vient|j'ai peur de l'au-|to- mne *|de tris- tes ma-|tins,|de soirs mo- no-|
w: Oh, it's a|long, long while|from May to De-|cem- ber, *|but the days grow|short,|when you reach Sep-|
 D3 D- D4 | z2 B,B, D2 A2 | G3 G- G4 | z2 B,B, _D2 _G2 | F8 | z2 D2 FF B2 | c8 | z2 CD E2 E2 | %15
w: to- nes *|j'ai peur de l'au-|to- mne *|sai- son des re-|grets|où l'es- poir dispa-|raît|dans les coeurs in-|
w: tem- ber. *|When the au- tumn|wea- ther *|turns the leaves to|flame|one has- n't got|time|for the wai- ting|
 D8- | D2 z2 B2 B2 | c2 BA B4- | B4 B2 B2 | _d3 B B4- | B6 z B | c4 B4- | B6 z B | _d4 B4 | %24
w: quiets|* sous le|ciel gris et lourd|* les jours|sont plus courts|* Nu-|a- ges,|* o-|ra- ges!|
w: game.|* Oh, the|days dwin- dle down|* to a|pre- cious few,|* Sep-|tem- ber,|* No-|vem- ber!|
 z2 B,2 =D2"^l\'automne" A2 | G3 G G4 | z2 B,2 _D2 _G2 | F8 | z2 D2 F2 B2 | c6 G2 | B4 B4 | B8 |] %32
w: Lors- que sept-|em- bre vient|je me sou-|viens|et dans mon|coeur, sou-|dain j'ai|peur|
w: And these few|pre- cious days|I'll spend with|you,|These pre- cious|days I'll|spend with|you.|
V:2
 z2 F,2 B,2 D2 | _D2 D2 D4 | z2 _G,2 (3G,2 B,2 _D2 | =D3 D- D4 | z2 B,B, D2 F2 | =E8 | %6
 z2 B,2 (3A,2 =G,2 A,2 | B,3 B,- B,4 | z2 F,F, B,2 D2 | _D3 D- D4 | z2 _G,G, B,2 _D2 | =D8 | %12
 z2 B,2 DD F2 | =E8 | z2 B,B, B,2 A,2 | B,8- | B,2 z2 F2 F2 | _G2 GG G4- | G4 _G2 G2 | =G3 G G4- | %20
 G6 z G | _G4 G4- | G6 z _G | =G4 G4 | z2 F,2 B,2 D2 | _D3 D D4 | z2 _G,2 B,2 _D2 | =D8 | %28
 z2 B,2 D2 F2 | =E6 G2 | z2 _G2 (F2 E2) | D8 |] %32
V:3
 z2 D,2 F,2 B,2 | B,2 B,2 B,4 | z2 _D,2 (3D,2 _G,2 B,2 | B,3 B,- B,4 | z2 F,F, B,2 D2 | C8 | %6
w: Lors- que sept-|em- bre vient|j'ai peur de l'au-|to- mne *|de tris- tes ma-|tins,|
w: Oh, it's a|long, long while|from May to De-|cem- ber, *|but the days grow|short,|
 z2 _E,2 (3E,2 E,2 E,2 | D,3 F,- F,4 | z2 D,D, F,2 B,2 | B,3 B,- B,4 | z2 _D,D, _G,2 B,2 | B,8 | %12
w: de soirs mo- no-|to- nes *|j'ai peur de l'au-|to- mne *|sai- son des re-|grets|
w: when you reach Sep-|tem- ber. *|When the au- tumn|wea- ther *|turns the leaves to|flame|
 z2 F,2 B,B, D2 | C8 | z2 =E,G, _G,2 F,2 | F,8- | F,2 z2 D2 D2 | E4 z2 B,2 | C2 B,A, B,4 | %19
w: où l'es- poir dispa-|raît|dans les coeurs in-|quiets|* sous le|ciel le|ciel gris et lourd|
w: one has- n't got|time|for the wai- ting|game.|* Oh, the|days the|days dwin- dle down|
 z4 z2 B,2 | _D3 B, B,4 | z4 z2 z B, | C4 B,2 z B, | _D4 D4 | z2 =D,2 F,2 B,2 | B,3 B, B,4 | %26
w: sont|\- plus courts|Nu-|a- ges, o-|ra- ges!|Lors- que sept-|em- bre vient|
w: a|pre- cious few,|Sep-|tem- ber, No-|vem- ber!|And these few|pre- cious days|
 z2 _D,2 _G,2 B,2 | B,8 | z2 F,2 B,2 D2 | C6 B,2 | C2 B,2 _A,2 _G,2 | F,8 |] %32
w: je me sou-|viens|et dans mon|coeur, sou-|dain \- j'ai \-|peur|
w: I'll spend with|you,|These pre- cious|days I'll|spend \- with \-|you.|
V:4
 z8 |"^Ooooh!" B,,4 G,3 F, | B,,8 | B,,2 F,2 G,2 F,2 | B,,4 A,,2 _A,,2 | G,,4 C,3 G,, | %6
 _G,,4 F,,4 | B,,2 F,2 G,2 F,2 | B,,2 z2 z4 | B,,2 F,2 G,3 F, | B,,8 | B,,2 F,2 =G,2 F,2 | %12
 B,,4 A,,2 _A,,2 | G,,4 C,3 G,, | C,4 F,,4 | B,,2 F,2 G,2 F,2 | B,,4 z4 | E,8- | E,8 | =E,8- | %20
 E,8 | _E,8- | E,8 | =E,8 | F,2 z2 z4 | B,,2 F,2 G,3 F, | B,,8 | B,,2 F,2 =G,2 F,2 | %28
 B,,4 A,,2 _A,,2 | G,,4 C,3 B,, | _A,,8 | B,,8 |] %32

